lib/assets/icons/svg/outlined-product-makeup.svg

<svg xmlns="http://www.w3.org/2000/svg" viewBox="0 0 24 24"><path d="M9.165 6.679a2.73 2.73 0 0 1 1.57-2.56l2.56-1.54c.344-.236.79-.263 1.16-.07.432.371.669.921.64 1.49 0 0-.05 2-.05 2.34l.05 4.281a2.1 2.1 0 0 1 1.08 1.739l.03 9.26h-8.41v-9.26a2.153 2.153 0 0 1 1.37-1.857zm4.88-.35c0-.33.05-2.33.05-2.33a1.142 1.142 0 0 0-.16-.63l-.15.08-2.63 1.55a1.769 1.769 0 0 0-1 1.66v3.7h3.84l.097-.002zm-5.25 14.29h6.41v-1.96h-6.41zm6.41-8.26a1.12 1.12 0 0 0-1.17-1h-4.06a1.1 1.1 0 0 0-1.18 1.03v5.27h6.41z"/></svg>

<svg viewBox="0 0 24 24" xmlns="http://www.w3.org/2000/svg">
  <path  d="M 9.165 6.679 C 9.13 5.589 9.747 4.582 10.735 4.119 L 13.295 2.579 C 13.639 2.343 14.085 2.316 14.455 2.509 C 14.887 2.88 15.124 3.43 15.095 3.999 C 15.095 3.999 15.045 5.999 15.045 6.339 L 15.095 10.62 C 15.71 10.962 16.14 11.605 16.175 12.359 L 16.205 21.619 L 7.795 21.619 L 7.795 12.359 C 7.855 11.503 8.41 10.794 9.165 10.502 Z M 14.045 6.329 C 14.045 5.999 14.095 3.999 14.095 3.999 C 14.104 3.778 14.048 3.559 13.935 3.369 L 13.785 3.449 L 11.155 4.999 C 10.521 5.304 10.129 5.956 10.155 6.659 L 10.155 10.359 L 13.995 10.359 C 14.027 10.358 14.06 10.357 14.092 10.357 Z M 8.795 20.619 L 15.205 20.619 L 15.205 18.659 L 8.795 18.659 Z M 15.205 12.359 C 15.142 11.768 14.629 11.329 14.035 11.359 L 9.975 11.359 C 9.363 11.313 8.832 11.777 8.795 12.389 L 8.795 17.659 L 15.205 17.659 Z"/>
</svg>
